X:1
T:Title
%%score ( 1 2 ) ( 3 4 )
L:1/8
Q:1/4=83
M:4/8
K:G
V:1 treble nm="Grand Piano, Soprano"
V:2 treble 
V:3 bass nm="Choir Pad, Bass"
V:4 bass 
V:1
 [B,D][B,G][B,G][DB] | [DB][Gd] [Gd]2 | [Ge][Gd][GB]G | [GB][FA] [FA]2 | [B,D][B,G][B,G][DB] | %5
w: By~J.~Rosecrans,~James~&~Charles~Fillmore,~1887 * * *|||||
 [DB][Gd] [Gd]2 | [Ge][Gd][GB]G | [GB][FA] G2 | z2 B z | z2 B z | [Ge][Gd][GB]G | [GB][FA] [FA]2 | %12
w: |||||||
 z2 B z | z2 B z | [Ge][Gd][GB]G | [GB][FA] G2- | G4 |] %17
w: |||||
V:2
 x4 | x4 | x4 | x4 | x4 | x4 | x4 | x4 | z G/>[GA]/G-[Gd] | z G/>[GA]/G-[Gd] | x4 | x4 | %12
 z G/>[GA]/G-[Gd] | z G/>[GA]/G-[Gd] | x4 | x4 | x4 |] %17
V:3
 G,G,G,G, | G,[G,B,] [G,B,]2 | [G,C][G,B,][G,D][G,B,] | [D,D][D,D] [D,D]2 | G,G,G,G, | %5
 G,[G,B,] [G,B,]2 | [G,C][G,B,][G,D][G,B,] | [D,D][D,C] [G,B,]2 | z B,/>C/DB, | z B,/>C/DB, | %10
 [G,C][G,B,][G,D][G,B,] | [D,D][D,D] [D,D]2 | z B,/>C/DB, | z B,/>C/DB, | [G,C][G,B,][G,D][G,B,] | %15
 [D,D][D,C] [G,B,]2- | [G,B,]4 |] %17
V:4
 x4 | x4 | x4 | x4 | x4 | x4 | x4 | x4 | G,2 D,2 | G,2 D,2 | x4 | x4 | G,2 D,2 | G,2 D,2 | x4 | %15
 x4 | x4 |] %17

